!!!!SEGMENT: pl-wtm--670-sp-3678--001-016_reinecke-carl--piosenki-dla-mlodocianego-wieku-piotr-maszynski-16-skrzypki.krn
!!!cenid: 18xx:4768
!!!COM: Reinecke, Carl
!!!COM-rismID: pe42007
!!!CDT: 1824/06/23-1910/03/10
!!!CNT: German
!!!GTL: Piosenki dla młodocianego wieku (Piotr Maszyński)
!!!OTL: 16. Skrzypki
!!!OMV: 016
!!!PDT: 1871
!!!AGN: Secular; Song; Children
!!!YEC: Copyright 2022 Narodowy Instytut Fryderyka Chopina (https://polishscores.org)
!!!YEM: License CC-BY-4.0 (https://creativecommons.org/licenses/by/4.0)
!!!SMS-siglum: PL-Wtm
!!!SMS-shelfmark: 670 śp 3678
!!!SMS-variant:
!!!SMS-altvar:
!!!SMS-shelfwork: 001-016 G
!!!NIFC-rismSourceID: 1001185478
!!!NIFC-rismChildID: 1001185478
!!!NIFC-islandoraID: pl-wtm:57754
!!!URL-pdf-islandora: https://repozytorium.nifc.pl/islandora/object/pl-wtm%3A57754/datastream/PDF/view
!!!URL-scan: https://polish.musicsources.pl/pl/lokalizacje/galeria/druki-muzyczne/19483/12 @EN{Scan on Polish Music Sources Website} @PL{Skany w portalu Dziedzictwo Muzyki Polskiej w otwartym dostępie}
!!!IIIF:
!!!ONB-nifc:
!!!AIN: 1 piano 1 vox
!!!key: G
!!!OMD: Vivace.
**kern	**kern	**dynam	**kern	**text	**text
*part2	*part2	*part2	*part1	*part1	*part1
*staff3	*staff2	*	*staff1	*staff1	*staff1
*I"Fortepian.	*I"Fortepian.	*	*I"Śpiew.	*	*
*I'pf	*I'pf	*	*I'V	*	*
*Ipiano	*Ipiano	*	*Ivox	*	*
*ICklav	*ICklav	*	*ICvox	*	*
*IGacmp	*IGacmp	*	*IGsolo	*	*
*>[A,B,B1,B,B2]	*>[A,B,B1,B,B2]	*>[A,B,B1,B,B2]	*>[A,B,B1,B,B2]	*>[A,B,B1,B,B2]	*>[A,B,B1,B,B2]
*>A	*>A	*>A	*>A	*>A	*>A
*clefF4	*clefG2	*	*clefG2	*	*
*k[f#]	*k[f#]	*	*k[f#]	*	*
*G:	*G:	*	*G:	*	*
*M2/4	*M2/4	*	*M2/4	*	*
=1	=1	=1	=1	=1	=1
!	!	!	!	!	!
!	!	!	!	!	!
2r	4d 4G/	.	2r	.	.
.	8qe/	.	.	.	.
.	[4d [4G/	.	.	.	.
=2	=2	=2	=2	=2	=2
8qE/	.	.	.	.	.
2D\	4d] 4G/]	.	4r	.	.
.	4f# 4d 4A/	p	16dd\	Że-	.
.	.	.	16cc#X\	-bym	.
.	.	.	16dd\	ja	.
.	.	.	16ccn\	to	.
=3!|:	=3!|:	=3!|:	=3!|:	=3!|:	=3!|:
*>B	*>B	*>B	*>B	*>B	*>B
8GG'/L	8gL 8d 8B/	.	8b\	skrzyp-	ra-
8BB'/J	8gJ 8d 8B/	.	8b\	-ki	-dość
8D'/L	8f#L 8d 8c'/	.	8a/	miał	co
8DD'/J	8f#J 8d 8c'/	.	8b\	praw-	się
=4	=4	=4	=4	=4	=4
4GG/	4g 4d 4B/	.	8g/	-dzi-	zo-
.	.	.	8d/	-we,	-wie,
4D\	4f# 4d 4A/	.	16dd\	że-	to
.	.	.	16cc#X\	-bym	mi
.	.	.	16dd\	ja	ra-
.	.	.	16ccn\	to	-dość
!!LO:LB:g=original
=5	=5	=5	=5	=5	=5
8GG'/L	8gL 8d 8B'/	.	8b\	skrzyp-	skrzyp-
8BB'/	8g 8d'/	.	8dd\	-ki	-ki
8AA'/	8g 8e'/	.	8cc#X\	ma-	mieć
8AA'/J	8gJ 8c#X'/	.	8ee\	-łe	i
=6	=6	=6	=6	=6	=6
*^	*	*	*	*	*
4ryy	4D\	4f# 4d/	.	4dd\	miał,	smyk,
8.cn^/L	4D\	8.f#L 8.d^>/	.	8.f#/	grał-	co
16B/Jk	.	16gJk 16e/	.	16g/	-bym	to
=7	=7	=7	=7	=7	=7	=7
8A'/L	4D\	8aL 8f#/	.	8a/	na	Sta-
8G'/	.	8bJ 8g/	.	8b\	nich	-sio
8F#'/	8ryy	8ccL 8a'/	.	8cc\	bez	na
8A'/J	8C\	8eeJ 8f#'/	.	8ee\	wy-	nie
=8	=8	=8	=8	=8	=8	=8
4G/	4BB\	4dd 4g\	.	8dd\	-tchnie-	po-
.	.	.	.	8dd\	-nia	-wie?
8C#X'/	4ryy	8ee 8a 8g'\	.	8ee\	ca-	On
8r	.	8r	.	8a/	-ły	i
*v	*v	*	*	*	*	*
=9	=9	=9	=9	=9	=9
8D'\	8dd 8b 8g'\	.	8dd\	dzień	Ka-
8r	8r	.	8g/	bym	-zio
8AL 8D#X'\	8ccL 8f#'/	.	8cc\	na	przyj-
8D#'\J	8f#J 8c'/	.	8f#/	nich	-dą
=10	=10	=10	=10	=10	=10
4E\	4g 4B/	.	4g/	grał,	w mig,
4Dn^\	4g#X 4fn 4B^>/	.	4g#X/	ach,	tak,
!!LO:LB:g=original
=11	=11	=11	=11	=11	=11
4C/	4a 4d/	.	16a/	ca-	on
.	.	.	16b\	-ły	i
.	.	.	16cc\	dzień	Ka-
.	.	.	16dd\	bym	-zio
8AL 8C\	8e/L	.	8ee\	na	przyj-
8D\J	8f#J 8c/	.	8f#/	nich	-dą
=12	=12	=12	=12	=12	=12
8DL 8GG/	8gL 8B/	mf	4g/	grał;	w mig;
16DL 16GG/	16dL 16B/	.	.	.	.
16DJJ 16GG/	16dJJ 16B/	.	.	.	.
8DL 8GG^/	8dL 8B^>/	.	4r	.	.
16DL 16GG/	16dL 16B/	.	.	.	.
16DJJ 16GG/	16dJJ 16B/	.	.	.	.
=13	=13	=13	=13	=13	=13
8DL 8GG^/	8dL 8B^>/	.	4r	.	.
16DL 16GG/	16dL 16B/	.	.	.	.
16DJJ 16GG/	16dJJ 16B/	.	.	.	.
8DL 8GG/	8dL 8B^>/	.	8r	.	.
!	!	!LO:DY:rj	!	!	!
16DL 16GG/	16dL 16B/	p	8d/	i	bę-
16DJJ 16GG/	16dJJ 16B/	.	.	.	.
=14	=14	=14	=14	=14	=14
8FnL 8GG/	8gL 8d/	.	8b\	ska-	-dzie-
16FL 16GG/	16gL 16d/	.	16b\	-kał-	-my
16FJJ 16GG/	16gJJ 16d/	.	16b\	-bym,	przy-
8FL 8GG/	8gL 8d/	.	8b\	śpie-	-gry-
16FL 16GG/	16gL 16d/	.	16b\	-wał	-wać
16FJJ 16GG/	16gJJ 16d/	.	16b\	przez	przez
=15	=15	=15	=15	=15	=15
8EL 8GG/	8gL 8c/	.	16dd\	ca-	ca-
.	.	.	16cc\	-ły	-ły
16EL 16GG/	16gL 16c/	.	16cc\	bo-	bo-
16EJJ 16GG/	16gJJ 16c/	.	16b\	-ży	-ży
8EL 8GG/	8gL 8c/	.	4a/	dzień:	dzień:
16EL 16GG/	16gL 16c/	.	.	.	.
16EJJ 16GG/	16gJJ 16c/	.	.	.	.
!!LO:PB:g=original
=16	=16	=16	=16	=16	=16
4.D 4.GG/	4.f# 4.c/	.	16a/	dy-	.
.	.	.	16b\	-lu	.
.	.	.	16cc\	dy-	.
.	.	.	16dd\	-lu	.
.	.	.	8ee\	don	.
8D'\	8d 8c'/	.	16f#/	dy-	.
.	.	.	16f#/	-lu	.
=17	=17	=17	=17	=17	=17
8GG'/L	8dL 8B'/	.	16a/	du-	.
.	.	.	16g/	-lu	.
8D'/	8d 8c'/	.	16g/	dy-	.
.	.	.	16f#/	-lu	.
8GG'/	8d 8B'/	.	16a/	dy-	.
.	.	.	16g/	-lu	.
8D'/J	8dJ 8c'/	.	16g/	dy-	.
.	.	.	16f#/	-lu	.
=18	=18	=18	=18	=18	=18
4GG/	4d 4B/	.	4g/	deń.	.
.	8qee/	.	.	.	.
4A 4D^<\	4dd 4f#^/	f	4r	.	.
=19	=19	=19	=19	=19	=19
*>B1	*>B1	*>B1	*>B1	*>B1	*>B1
.	8qdd;/	.	.	.	.
4B 4G;\	4gg 4b;\	.	4r;	.	.
4D\	4f# 4d 4A/	p	16dd\	To	.
.	.	.	16cc#X\	do-	.
.	.	.	16dd\	-pie-	.
.	.	.	16ccn\	-ro	.
=20:|!	=20:|!	=20:|!	=20:|!	=20:|!	=20:|!
*>B2	*>B2	*>B2	*>B2	*>B2	*>B2
.	8qdd/	.	.	.	.
2B 2G;\	2gg 2b;\	.	2r;	.	.
==	==	==	==	==	==
*-	*-	*-	*-	*-	*-
!!!system-decoration: s1{(s2,s3)}
!!!RDF**kern: > = above
!!!RDF**kern: < = below
!!!ENC: Andrzej Gręziak
!!!END: 2025-03-26
!!!EED: Marta Lawrence
!!!EEV: 2025-03-31
